app/assets/images/heroicons/micro/view-columns.svg

<svg width="16" height="16" viewBox="0 0 16 16" fill="none" xmlns="http://www.w3.org/2000/svg">
<path d="M9.83594 3H6.16602V13H9.83594V3Z" fill="black"/>
<path d="M11.3359 13H13.5C14.3284 13 15 12.3284 15 11.5V4.5C15 3.67157 14.3284 3 13.5 3H11.3359V13Z" fill="black"/>
<path d="M2.5 3H4.66602V13H2.5C1.67157 13 1 12.3284 1 11.5V4.5C1 3.67157 1.67157 3 2.5 3Z" fill="black"/>
</svg>

<svg xmlns="http://www.w3.org/2000/svg" viewBox="0 0 16 16" fill="currentColor" aria-hidden="true" data-slot="icon">
  <path d="M9.836 3h-3.67v10h3.67V3ZM11.336 13H13.5a1.5 1.5 0 0 0 1.5-1.5v-7A1.5 1.5 0 0 0 13.5 3h-2.164v10ZM2.5 3h2.166v10H2.5A1.5 1.5 0 0 1 1 11.5v-7A1.5 1.5 0 0 1 2.5 3Z"/>
</svg>
